X:1
T: Brisk Young Lads
C: J-11
M: 6/8
Z:
R: jig
K: Am
E| "Am"A>BA c2d| edc B2A| "G"G>AG B2c| dge dBG|
   "Am"A>BA c2d| edc "G"Bcd| "Am"e2A "E7"AB^G| "Am"A3 a z :|
|:\
B| "C"c>de/f/ g2a| gec gec| "G"G>AB/c/ d2e| dBg dBG|
   "C"c>de/f/ g2a| gec "E7"ce^g| "Am"a2A "E7"AB^G| "Am"A3 a z :|
%
